actions/24/mail-folder-outbox.svg

<?xml version="1.0" encoding="UTF-8" standalone="no"?>
<svg
   width="24"
   height="24"
   viewBox="0 0 24 24"
   version="1.1"
   id="svg7"
   sodipodi:docname="mail-folder-outbox.svg"
   inkscape:version="1.1.2 (0a00cf5339, 2022-02-04)"
   xmlns:inkscape="http://www.inkscape.org/namespaces/inkscape"
   xmlns:sodipodi="http://sodipodi.sourceforge.net/DTD/sodipodi-0.dtd"
   xmlns="http://www.w3.org/2000/svg"
   xmlns:svg="http://www.w3.org/2000/svg">
  <sodipodi:namedview
     id="namedview9"
     pagecolor="#000000"
     bordercolor="#666666"
     borderopacity="1.0"
     inkscape:pageshadow="2"
     inkscape:pageopacity="0"
     inkscape:pagecheckerboard="0"
     showgrid="false"
     inkscape:zoom="28.416667"
     inkscape:cx="11.982405"
     inkscape:cy="11.964809"
     inkscape:window-width="1482"
     inkscape:window-height="967"
     inkscape:window-x="0"
     inkscape:window-y="29"
     inkscape:window-maximized="1"
     inkscape:current-layer="svg7" />
  <defs
     id="defs3">
    <style
       id="current-color-scheme"
       type="text/css">
   .ColorScheme-Text { color:#eeeeec; } .ColorScheme-Highlight { color:#367bf0; } .ColorScheme-NeutralText { color:#ffcc44; } .ColorScheme-PositiveText { color:#3db47e; } .ColorScheme-NegativeText { color:#dd4747; }
  </style>
  </defs>
  <path
     style="fill:currentColor"
     class="ColorScheme-Text"
     d="M 1.9980469,0.99414062 2,1 C 0.9688,1.0625 1,2 1,2 v 12 c 0,0 -0.0312,0.9375 1,1 h 12 c 1,0 1,-1 1,-1 V 2 C 15,2 15,1 14,1 H 9.0975847 L 8.78125,1.375 v 0 L 10.09375,3 H 13 v 7 H 10 C 10,11.108 9.108,12 8,12 6.892,12 6,11.108 6,10 H 3 V 3 h 2.90625 l 1.3125,-1.625 v 0 L 6.7755238,0.99414062 Z M 7.5059353,2.6175809 v 0 L 4.5812727,6.2734091 4.8752198,7 V 7 H 6 v 2 h 4 V 7 h 1.244577 V 7 L 11.407268,6.2590845 8.5307058,2.6633823 Z"
     transform="translate(4,4)"
     id="path5"
     sodipodi:nodetypes="cccccsccscccccccscccccccccccccccccccccc" />
</svg>

<svg xmlns="http://www.w3.org/2000/svg" width="24" height="24" viewBox="0 0 24 24">
 <defs>
  <style id="current-color-scheme" type="text/css">
   .ColorScheme-Text { color:#eeeeec; } .ColorScheme-Highlight { color:#367bf0; } .ColorScheme-NeutralText { color:#ffcc44; } .ColorScheme-PositiveText { color:#3db47e; } .ColorScheme-NegativeText { color:#dd4747; }
  </style>
 </defs>
 <path style="fill:currentColor" class="ColorScheme-Text" d="M 1.9980469 0.99414062 L 2 1 C 0.9688 1.0625 1 2 1 2 L 1 14 C 1 14 0.9688 14.9375 2 15 L 14 15 C 15 15 15 14 15 14 L 15 2 C 15 2 15 1 14 1 L 8.46875 1 L 8.78125 1.375 L 10.09375 3 L 13 3 L 13 10 L 10 10 C 10 11.108 9.108 12 8 12 C 6.892 12 6 11.108 6 10 L 3 10 L 3 3 L 5.90625 3 L 7.21875 1.375 L 7.5292969 0.99414062 L 1.9980469 0.99414062 z M 8 2 L 4 7 L 6 7 L 6 9 L 10 9 L 10 7 L 12 7 L 8 2 z" transform="translate(4 4)"/>
</svg>
